X: 10131
M: 2/4
L: 1/8
K: D
|:\
ee/e/ (.e.e) |edcB | cc/c/ (.c.B) | A^G=GE |
ee/e/ (.e.f) | gfed | (cB)GE | D2z2 :|[K:G]
|: vBzuBz | vBzuBz | (.A>.G)FG | D2z2 |\
vFzuFz | vFzuFz | F>GAB | cded |
vBzuBz | vBzuBz | B>def | ag Bd |\
fe Ac | ed FG | (BA) EF G2z2 :|[K:D]
|: AA/A/ (.A.A) | AAAA | fedc | (c^A)B2 |\
aa/a/ (ae) | gf^ef | ff/f/ (fc) | edcd |\
cc/c/ (c^G) | BA^GA | ^AB^Bc | dfg^g |
aa/a/ (ae) | gf^ef | ff/f/ (fc) | edcd |\
cc/c/ (c^G) | BA^GA | ^AB^Bc | d2z2 :|


